X:996
T:Bog Carrot, The
R:reel
D:Buttons and Bows
Z:id:hn-reel-996
M:C|
L:1/8
K:D
FAdA BdAd | BdAF ~E3G | FAdA BdAd | BdAF (3EFE D2 :|
|: ~f3e defg | afdf e2de | fgfe defe | dBAF (3EFE D2 :|
|: afdf afdf | ge=ce ge^ce |1 afdf afdf | ge^ce d3f :|2 afge fdec | dBAF (3EFE D2 ||
P:variations
|: FAdA BdAB | dBAF ~E3G | FAdA BdAB | dBAF EFD2 :|
|: ~f3e defg | afdf efde | ~f3e defe | dBAF EFD2 :|
|: afdf afdf | ge=ce ge=ce |1 afdf afdf | ge^ce defg :|2 afge fdec | dBAF EFD2 ||

